versioned_docs/version-3.X/reference/data-models/aws/img/aws_iam_user.svg

<svg xmlns="http://www.w3.org/2000/svg" xmlns:xlink="http://www.w3.org/1999/xlink" width="704" height="872" preserveAspectRatio="none" style="width:704px;height:872px;background:#00000000"><a xlink:actuate="onRequest" xlink:href="#a" xlink:show="new" xlink:title="#user" xlink:type="simple" target="_top"><rect id="a" width="78" height="39.789" x="204.5" y="419.5" fill="#3D176E" rx="2.5" ry="2.5" style="stroke:#000d19;stroke-width:1.5"/><circle cx="219.5" cy="439.394" r="11" fill="#E98DF7" style="stroke:#000d19;stroke-width:1"/><path d="M222.469 445.035q-.578.297-1.219.438-.64.156-1.344.156-2.5 0-3.828-1.64-1.312-1.657-1.312-4.782t1.312-4.781q1.328-1.656 3.828-1.656.703 0 1.344.156.656.156 1.219.453v2.719q-.625-.579-1.219-.844-.594-.281-1.219-.281-1.344 0-2.031 1.078-.688 1.062-.688 3.156 0 2.094.688 3.172.688 1.062 2.031 1.062.625 0 1.219-.265.594-.281 1.219-.86v2.72Z"/><text x="238.5" y="445.28" fill="#D9B8FF" font-family="Helvetica" font-size="17" textLength="36">user</text></a><a xlink:actuate="onRequest" xlink:href="#b" xlink:show="new" xlink:title="#aws_resource" xlink:type="simple" target="_top"><rect id="b" width="155" height="70.594" x="318" y="404" fill="#3D176E" rx="2.5" ry="2.5" style="stroke:#000d19;stroke-width:1.5"/><circle cx="333" cy="423.894" r="11" fill="#E98DF7" style="stroke:#000d19;stroke-width:1"/><path d="M335.969 429.535q-.578.297-1.219.438-.64.156-1.344.156-2.5 0-3.828-1.64-1.312-1.657-1.312-4.782t1.312-4.781q1.328-1.656 3.828-1.656.703 0 1.344.156.656.156 1.219.453v2.719q-.625-.579-1.219-.844-.594-.281-1.219-.281-1.344 0-2.031 1.078-.688 1.062-.688 3.156 0 2.094.688 3.172.688 1.062 2.031 1.062.625 0 1.219-.265.594-.281 1.219-.86v2.72Z"/><text x="352" y="429.78" fill="#D9B8FF" font-family="Helvetica" font-size="17" textLength="113">aws_resource</text><path d="M319 443.789h153" style="stroke:#000d19;stroke-width:1.5"/><text x="329" y="463" fill="#D9B8FF" font-family="sans-serif" font-size="11" font-weight="bold" textLength="21">arn</text><text x="350" y="463" fill="#D9B8FF" font-family="sans-serif" font-size="11" textLength="41">: string</text></a><a xlink:actuate="onRequest" xlink:href="#c" xlink:show="new" xlink:title="#resource" xlink:type="simple" target="_top"><rect id="c" width="195" height="275.836" x="221" y="7" fill="#3D176E" rx="2.5" ry="2.5" style="stroke:#000d19;stroke-width:1.5"/><circle cx="273.75" cy="26.895" r="11" fill="#E98DF7" style="stroke:#000d19;stroke-width:1"/><path d="M276.719 32.535q-.578.297-1.219.438-.64.156-1.344.156-2.5 0-3.828-1.64-1.312-1.657-1.312-4.782t1.312-4.781q1.328-1.656 3.828-1.656.703 0 1.344.156.656.156 1.219.453v2.719q-.625-.578-1.219-.844-.594-.281-1.219-.281-1.344 0-2.031 1.078-.688 1.062-.688 3.156 0 2.094.688 3.172.688 1.062 2.031 1.062.625 0 1.219-.265.594-.281 1.219-.86v2.72Z"/><text x="299.25" y="32.78" fill="#D9B8FF" font-family="Helvetica" font-size="17" textLength="71">resource</text><path d="M222 46.789h193" style="stroke:#000d19;stroke-width:1.5"/><text x="232" y="65.999" fill="#D9B8FF" font-family="sans-serif" font-size="11" font-weight="bold" textLength="12">id</text><text x="244" y="65.999" fill="#D9B8FF" font-family="sans-serif" font-size="11" textLength="41">: string</text><text x="232" y="88.804" fill="#D9B8FF" font-family="sans-serif" font-size="11" font-weight="bold" textLength="28">tags</text><text x="260" y="88.804" fill="#D9B8FF" font-family="sans-serif" font-size="11" textLength="145">: dictionary[string, string]</text><text x="232" y="111.609" fill="#D9B8FF" font-family="sans-serif" font-size="11" font-weight="bold" textLength="35">name</text><text x="267" y="111.609" fill="#D9B8FF" font-family="sans-serif" font-size="11" textLength="41">: string</text><text x="232" y="134.414" fill="#D9B8FF" font-family="sans-serif" font-size="11" font-weight="bold" textLength="35">ctime</text><text x="267" y="134.414" fill="#D9B8FF" font-family="sans-serif" font-size="11" textLength="58">: datetime</text><text x="232" y="157.218" fill="#D9B8FF" font-family="sans-serif" font-size="11" font-weight="bold" textLength="24">age</text><text x="256" y="157.218" fill="#D9B8FF" font-family="sans-serif" font-size="11" textLength="55">: duration</text><text x="232" y="180.023" fill="#D9B8FF" font-family="sans-serif" font-size="11" font-weight="bold" textLength="39">mtime</text><text x="271" y="180.023" fill="#D9B8FF" font-family="sans-serif" font-size="11" textLength="58">: datetime</text><text x="232" y="202.828" fill="#D9B8FF" font-family="sans-serif" font-size="11" font-weight="bold" textLength="75">last_update</text><text x="307" y="202.828" fill="#D9B8FF" font-family="sans-serif" font-size="11" textLength="55">: duration</text><text x="232" y="225.632" fill="#D9B8FF" font-family="sans-serif" font-size="11" font-weight="bold" textLength="36">atime</text><text x="268" y="225.632" fill="#D9B8FF" font-family="sans-serif" font-size="11" textLength="58">: datetime</text><text x="232" y="248.437" fill="#D9B8FF" font-family="sans-serif" font-size="11" font-weight="bold" textLength="74">last_access</text><text x="306" y="248.437" fill="#D9B8FF" font-family="sans-serif" font-size="11" textLength="55">: duration</text><text x="232" y="271.242" fill="#D9B8FF" font-family="sans-serif" font-size="11" font-weight="bold" textLength="27">kind</text><text x="259" y="271.242" fill="#D9B8FF" font-family="sans-serif" font-size="11" textLength="41">: string</text></a><a xlink:actuate="onRequest" xlink:href="#d" xlink:show="new" xlink:title="#aws_iam_policy_detail" xlink:type="simple" target="_top"><rect id="d" width="261" height="93.398" x="7" y="772" fill="#3D176E" rx="2.5" ry="2.5" style="stroke:#000d19;stroke-width:1.5"/><circle cx="36.4" cy="791.894" r="11" fill="#E98DF7" style="stroke:#000d19;stroke-width:1"/><path d="M39.369 797.535q-.578.297-1.219.438-.64.156-1.344.156-2.5 0-3.828-1.64-1.312-1.657-1.312-4.782t1.312-4.781q1.328-1.657 3.828-1.657.703 0 1.344.157.656.156 1.219.453v2.719q-.625-.578-1.219-.844-.594-.281-1.219-.281-1.343 0-2.031 1.078-.688 1.062-.688 3.156 0 2.094.688 3.172.688 1.062 2.031 1.062.625 0 1.219-.265.594-.282 1.219-.86v2.72Z"/><text x="58.6" y="797.78" fill="#D9B8FF" font-family="Helvetica" font-size="17" textLength="187">aws_iam_policy_detail</text><path d="M8 811.789h259" style="stroke:#000d19;stroke-width:1.5"/><text x="18" y="831" fill="#D9B8FF" font-family="sans-serif" font-size="11" font-weight="bold" textLength="79">policy_name</text><text x="97" y="831" fill="#D9B8FF" font-family="sans-serif" font-size="11" textLength="41">: string</text><text x="18" y="853.804" fill="#D9B8FF" font-family="sans-serif" font-size="11" font-weight="bold" textLength="107">policy_document</text><text x="125" y="853.804" fill="#D9B8FF" font-family="sans-serif" font-size="11" textLength="132">: dictionary[string, any]</text></a><a xlink:actuate="onRequest" xlink:href="#e" xlink:show="new" xlink:title="#aws_iam_user" xlink:type="simple" target="_top"><rect id="e" width="448" height="116.203" x="94.5" y="596" fill="#3D176E" rx="2.5" ry="2.5" style="stroke:#000d19;stroke-width:1.5"/><circle cx="249.75" cy="615.894" r="11" fill="#E98DF7" style="stroke:#000d19;stroke-width:1"/><path d="M252.719 621.535q-.578.297-1.219.438-.64.156-1.344.156-2.5 0-3.828-1.64-1.312-1.657-1.312-4.782t1.312-4.781q1.328-1.657 3.828-1.657.703 0 1.344.157.656.156 1.219.453v2.719q-.625-.578-1.219-.844-.594-.281-1.219-.281-1.344 0-2.031 1.078-.688 1.062-.688 3.156 0 2.094.688 3.172.688 1.062 2.031 1.062.625 0 1.219-.265.594-.282 1.219-.86v2.72Z"/><text x="275.25" y="621.78" fill="#D9B8FF" font-family="Helvetica" font-size="17" textLength="119">aws_iam_user</text><path d="M95.5 635.789h446" style="stroke:#000d19;stroke-width:1.5"/><text x="105.5" y="655" fill="#D9B8FF" font-family="sans-serif" font-size="11" font-weight="bold" textLength="29">path</text><text x="134.5" y="655" fill="#D9B8FF" font-family="sans-serif" font-size="11" textLength="41">: string</text><text x="105.5" y="677.804" fill="#D9B8FF" font-family="sans-serif" font-size="11" font-weight="bold" textLength="84">user_policies</text><text x="189.5" y="677.804" fill="#D9B8FF" font-family="sans-serif" font-size="11" textLength="141">: aws_iam_policy_detail[]</text><text x="105.5" y="700.609" fill="#D9B8FF" font-family="sans-serif" font-size="11" font-weight="bold" textLength="177">user_permissions_boundary</text><text x="282.5" y="700.609" fill="#D9B8FF" font-family="sans-serif" font-size="11" textLength="249">: aws_iam_attached_permissions_boundary</text></a><a xlink:actuate="onRequest" xlink:href="#f" xlink:show="new" xlink:title="#aws_iam_attached_permissions_boundary" xlink:type="simple" target="_top"><rect id="f" width="394" height="93.398" x="303.5" y="772" fill="#3D176E" rx="2.5" ry="2.5" style="stroke:#000d19;stroke-width:1.5"/><circle cx="318.5" cy="791.894" r="11" fill="#E98DF7" style="stroke:#000d19;stroke-width:1"/><path d="M321.469 797.535q-.578.297-1.219.438-.64.156-1.344.156-2.5 0-3.828-1.64-1.312-1.657-1.312-4.782t1.312-4.781q1.328-1.657 3.828-1.657.703 0 1.344.157.656.156 1.219.453v2.719q-.625-.578-1.219-.844-.594-.281-1.219-.281-1.344 0-2.031 1.078-.688 1.062-.688 3.156 0 2.094.688 3.172.688 1.062 2.031 1.062.625 0 1.219-.265.594-.282 1.219-.86v2.72Z"/><text x="337.5" y="797.78" fill="#D9B8FF" font-family="Helvetica" font-size="17" textLength="352">aws_iam_attached_permissions_boundary</text><path d="M304.5 811.789h392" style="stroke:#000d19;stroke-width:1.5"/><text x="314.5" y="831" fill="#D9B8FF" font-family="sans-serif" font-size="11" font-weight="bold" textLength="177">permissions_boundary_type</text><text x="491.5" y="831" fill="#D9B8FF" font-family="sans-serif" font-size="11" textLength="41">: string</text><text x="314.5" y="853.804" fill="#D9B8FF" font-family="sans-serif" font-size="11" font-weight="bold" textLength="170">permissions_boundary_arn</text><text x="484.5" y="853.804" fill="#D9B8FF" font-family="sans-serif" font-size="11" textLength="41">: string</text></a><path fill="none" d="M278.27 302.89c-11.94 46.57-23.51 91.69-29.83 116.35m23.12-118.35 11.75-17.63 1.81 21.11-13.56-3.48zm88.18 1.76c10.05 38.2 19.86 75.44 26.65 101.25m-33.44-99.52 1.68-21.12 11.86 17.56-13.54 3.56zm23.09 189.84c-11.26 31.07-25.42 70.15-36.88 101.76m30.4-104.45 13.4-16.42-.24 21.19-13.16-4.77zm-112.55-12.74c11.52 32.63 28.24 79.99 41.33 117.1m-48-114.97-.05-21.19 13.26 16.53-13.21 4.66zm4.6 231.14c-20.44 18.35-42.89 38.51-62.64 56.24" style="stroke:#ffaf37;stroke-width:2"/><path fill="#FFAF37" d="m188.39 771.81 9.371-3.03-5.648-.308.308-5.648-4.031 8.986z" style="stroke:#ffaf37;stroke-width:2"/><path fill="none" d="M382.41 712.06c20.55 18.35 43.13 38.51 62.99 56.24" style="stroke:#ffaf37;stroke-width:2"/><path fill="#FFAF37" d="m449.33 771.81-4.05-8.978.32 5.648-5.648.32 9.378 3.01z" style="stroke:#ffaf37;stroke-width:2"/></svg>

<svg xmlns="http://www.w3.org/2000/svg" xmlns:xlink="http://www.w3.org/1999/xlink" width="704" height="872" preserveAspectRatio="none" style="width:704px;height:872px;background:#00000000"><a xlink:actuate="onRequest" xlink:href="#a" xlink:show="new" xlink:title="#user" xlink:type="simple" target="_top"><rect id="a" width="78" height="39.789" x="204.5" y="419.5" fill="#3D176E" rx="2.5" ry="2.5" style="stroke:#000d19;stroke-width:1.5"/><circle cx="219.5" cy="439.394" r="11" fill="#E98DF7" style="stroke:#000d19;stroke-width:1"/><path d="M222.469 445.035q-.578.297-1.219.438-.64.156-1.344.156-2.5 0-3.828-1.64-1.312-1.657-1.312-4.782t1.312-4.781q1.328-1.656 3.828-1.656.703 0 1.344.156.656.156 1.219.453v2.719q-.625-.579-1.219-.844-.594-.281-1.219-.281-1.344 0-2.031 1.078-.688 1.062-.688 3.156 0 2.094.688 3.172.688 1.062 2.031 1.062.625 0 1.219-.265.594-.281 1.219-.86v2.72Z"/><text x="238.5" y="445.28" fill="#D9B8FF" font-family="Helvetica" font-size="17" textLength="36">user</text></a><a xlink:actuate="onRequest" xlink:href="#b" xlink:show="new" xlink:title="#aws_resource" xlink:type="simple" target="_top"><rect id="b" width="155" height="70.594" x="318" y="404" fill="#3D176E" rx="2.5" ry="2.5" style="stroke:#000d19;stroke-width:1.5"/><circle cx="333" cy="423.894" r="11" fill="#E98DF7" style="stroke:#000d19;stroke-width:1"/><path d="M335.969 429.535q-.578.297-1.219.438-.64.156-1.344.156-2.5 0-3.828-1.64-1.312-1.657-1.312-4.782t1.312-4.781q1.328-1.656 3.828-1.656.703 0 1.344.156.656.156 1.219.453v2.719q-.625-.579-1.219-.844-.594-.281-1.219-.281-1.344 0-2.031 1.078-.688 1.062-.688 3.156 0 2.094.688 3.172.688 1.062 2.031 1.062.625 0 1.219-.265.594-.281 1.219-.86v2.72Z"/><text x="352" y="429.78" fill="#D9B8FF" font-family="Helvetica" font-size="17" textLength="113">aws_resource</text><path d="M319 443.789h153" style="stroke:#000d19;stroke-width:1.5"/><text x="329" y="463" fill="#D9B8FF" font-family="sans-serif" font-size="11" font-weight="bold" textLength="21">arn</text><text x="350" y="463" fill="#D9B8FF" font-family="sans-serif" font-size="11" textLength="41">: string</text></a><a xlink:actuate="onRequest" xlink:href="#c" xlink:show="new" xlink:title="#resource" xlink:type="simple" target="_top"><rect id="c" width="195" height="275.836" x="221" y="7" fill="#3D176E" rx="2.5" ry="2.5" style="stroke:#000d19;stroke-width:1.5"/><circle cx="273.75" cy="26.895" r="11" fill="#E98DF7" style="stroke:#000d19;stroke-width:1"/><path d="M276.719 32.535q-.578.297-1.219.438-.64.156-1.344.156-2.5 0-3.828-1.64-1.312-1.657-1.312-4.782t1.312-4.781q1.328-1.656 3.828-1.656.703 0 1.344.156.656.156 1.219.453v2.719q-.625-.578-1.219-.844-.594-.281-1.219-.281-1.344 0-2.031 1.078-.688 1.062-.688 3.156 0 2.094.688 3.172.688 1.062 2.031 1.062.625 0 1.219-.265.594-.281 1.219-.86v2.72Z"/><text x="299.25" y="32.78" fill="#D9B8FF" font-family="Helvetica" font-size="17" textLength="71">resource</text><path d="M222 46.789h193" style="stroke:#000d19;stroke-width:1.5"/><text x="232" y="65.999" fill="#D9B8FF" font-family="sans-serif" font-size="11" font-weight="bold" textLength="12">id</text><text x="244" y="65.999" fill="#D9B8FF" font-family="sans-serif" font-size="11" textLength="41">: string</text><text x="232" y="88.804" fill="#D9B8FF" font-family="sans-serif" font-size="11" font-weight="bold" textLength="28">tags</text><text x="260" y="88.804" fill="#D9B8FF" font-family="sans-serif" font-size="11" textLength="145">: dictionary[string, string]</text><text x="232" y="111.609" fill="#D9B8FF" font-family="sans-serif" font-size="11" font-weight="bold" textLength="35">name</text><text x="267" y="111.609" fill="#D9B8FF" font-family="sans-serif" font-size="11" textLength="41">: string</text><text x="232" y="134.414" fill="#D9B8FF" font-family="sans-serif" font-size="11" font-weight="bold" textLength="35">ctime</text><text x="267" y="134.414" fill="#D9B8FF" font-family="sans-serif" font-size="11" textLength="58">: datetime</text><text x="232" y="157.218" fill="#D9B8FF" font-family="sans-serif" font-size="11" font-weight="bold" textLength="24">age</text><text x="256" y="157.218" fill="#D9B8FF" font-family="sans-serif" font-size="11" textLength="55">: duration</text><text x="232" y="180.023" fill="#D9B8FF" font-family="sans-serif" font-size="11" font-weight="bold" textLength="39">mtime</text><text x="271" y="180.023" fill="#D9B8FF" font-family="sans-serif" font-size="11" textLength="58">: datetime</text><text x="232" y="202.828" fill="#D9B8FF" font-family="sans-serif" font-size="11" font-weight="bold" textLength="75">last_update</text><text x="307" y="202.828" fill="#D9B8FF" font-family="sans-serif" font-size="11" textLength="55">: duration</text><text x="232" y="225.632" fill="#D9B8FF" font-family="sans-serif" font-size="11" font-weight="bold" textLength="36">atime</text><text x="268" y="225.632" fill="#D9B8FF" font-family="sans-serif" font-size="11" textLength="58">: datetime</text><text x="232" y="248.437" fill="#D9B8FF" font-family="sans-serif" font-size="11" font-weight="bold" textLength="74">last_access</text><text x="306" y="248.437" fill="#D9B8FF" font-family="sans-serif" font-size="11" textLength="55">: duration</text><text x="232" y="271.242" fill="#D9B8FF" font-family="sans-serif" font-size="11" font-weight="bold" textLength="27">kind</text><text x="259" y="271.242" fill="#D9B8FF" font-family="sans-serif" font-size="11" textLength="41">: string</text></a><a xlink:actuate="onRequest" xlink:href="#d" xlink:show="new" xlink:title="#aws_iam_policy_detail" xlink:type="simple" target="_top"><rect id="d" width="261" height="93.398" x="7" y="772" fill="#3D176E" rx="2.5" ry="2.5" style="stroke:#000d19;stroke-width:1.5"/><circle cx="36.4" cy="791.894" r="11" fill="#E98DF7" style="stroke:#000d19;stroke-width:1"/><path d="M39.369 797.535q-.578.297-1.219.438-.64.156-1.344.156-2.5 0-3.828-1.64-1.312-1.657-1.312-4.782t1.312-4.781q1.328-1.657 3.828-1.657.703 0 1.344.157.656.156 1.219.453v2.719q-.625-.578-1.219-.844-.594-.281-1.219-.281-1.343 0-2.031 1.078-.688 1.062-.688 3.156 0 2.094.688 3.172.688 1.062 2.031 1.062.625 0 1.219-.265.594-.282 1.219-.86v2.72Z"/><text x="58.6" y="797.78" fill="#D9B8FF" font-family="Helvetica" font-size="17" textLength="187">aws_iam_policy_detail</text><path d="M8 811.789h259" style="stroke:#000d19;stroke-width:1.5"/><text x="18" y="831" fill="#D9B8FF" font-family="sans-serif" font-size="11" font-weight="bold" textLength="79">policy_name</text><text x="97" y="831" fill="#D9B8FF" font-family="sans-serif" font-size="11" textLength="41">: string</text><text x="18" y="853.804" fill="#D9B8FF" font-family="sans-serif" font-size="11" font-weight="bold" textLength="107">policy_document</text><text x="125" y="853.804" fill="#D9B8FF" font-family="sans-serif" font-size="11" textLength="132">: dictionary[string, any]</text></a><a xlink:actuate="onRequest" xlink:href="#e" xlink:show="new" xlink:title="#aws_iam_user" xlink:type="simple" target="_top"><rect id="e" width="448" height="116.203" x="94.5" y="596" fill="#3D176E" rx="2.5" ry="2.5" style="stroke:#000d19;stroke-width:1.5"/><circle cx="249.75" cy="615.894" r="11" fill="#E98DF7" style="stroke:#000d19;stroke-width:1"/><path d="M252.719 621.535q-.578.297-1.219.438-.64.156-1.344.156-2.5 0-3.828-1.64-1.312-1.657-1.312-4.782t1.312-4.781q1.328-1.657 3.828-1.657.703 0 1.344.157.656.156 1.219.453v2.719q-.625-.578-1.219-.844-.594-.281-1.219-.281-1.344 0-2.031 1.078-.688 1.062-.688 3.156 0 2.094.688 3.172.688 1.062 2.031 1.062.625 0 1.219-.265.594-.282 1.219-.86v2.72Z"/><text x="275.25" y="621.78" fill="#D9B8FF" font-family="Helvetica" font-size="17" textLength="119">aws_iam_user</text><path d="M95.5 635.789h446" style="stroke:#000d19;stroke-width:1.5"/><text x="105.5" y="655" fill="#D9B8FF" font-family="sans-serif" font-size="11" font-weight="bold" textLength="29">path</text><text x="134.5" y="655" fill="#D9B8FF" font-family="sans-serif" font-size="11" textLength="41">: string</text><text x="105.5" y="677.804" fill="#D9B8FF" font-family="sans-serif" font-size="11" font-weight="bold" textLength="84">user_policies</text><text x="189.5" y="677.804" fill="#D9B8FF" font-family="sans-serif" font-size="11" textLength="141">: aws_iam_policy_detail[]</text><text x="105.5" y="700.609" fill="#D9B8FF" font-family="sans-serif" font-size="11" font-weight="bold" textLength="177">user_permissions_boundary</text><text x="282.5" y="700.609" fill="#D9B8FF" font-family="sans-serif" font-size="11" textLength="249">: aws_iam_attached_permissions_boundary</text></a><a xlink:actuate="onRequest" xlink:href="#f" xlink:show="new" xlink:title="#aws_iam_attached_permissions_boundary" xlink:type="simple" target="_top"><rect id="f" width="394" height="93.398" x="303.5" y="772" fill="#3D176E" rx="2.5" ry="2.5" style="stroke:#000d19;stroke-width:1.5"/><circle cx="318.5" cy="791.894" r="11" fill="#E98DF7" style="stroke:#000d19;stroke-width:1"/><path d="M321.469 797.535q-.578.297-1.219.438-.64.156-1.344.156-2.5 0-3.828-1.64-1.312-1.657-1.312-4.782t1.312-4.781q1.328-1.657 3.828-1.657.703 0 1.344.157.656.156 1.219.453v2.719q-.625-.578-1.219-.844-.594-.281-1.219-.281-1.344 0-2.031 1.078-.688 1.062-.688 3.156 0 2.094.688 3.172.688 1.062 2.031 1.062.625 0 1.219-.265.594-.282 1.219-.86v2.72Z"/><text x="337.5" y="797.78" fill="#D9B8FF" font-family="Helvetica" font-size="17" textLength="352">aws_iam_attached_permissions_boundary</text><path d="M304.5 811.789h392" style="stroke:#000d19;stroke-width:1.5"/><text x="314.5" y="831" fill="#D9B8FF" font-family="sans-serif" font-size="11" font-weight="bold" textLength="177">permissions_boundary_type</text><text x="491.5" y="831" fill="#D9B8FF" font-family="sans-serif" font-size="11" textLength="41">: string</text><text x="314.5" y="853.804" fill="#D9B8FF" font-family="sans-serif" font-size="11" font-weight="bold" textLength="170">permissions_boundary_arn</text><text x="484.5" y="853.804" fill="#D9B8FF" font-family="sans-serif" font-size="11" textLength="41">: string</text></a><path fill="none" d="M278.27 302.89c-11.94 46.57-23.51 91.69-29.83 116.35M271.56 300.89l11.75-17.63 1.81 21.11-13.56-3.48zM359.74 302.65c10.05 38.2 19.86 75.44 26.65 101.25M352.95 304.38l1.68-21.12 11.86 17.56-13.54 3.56zM376.04 494.22c-11.26 31.07-25.42 70.15-36.88 101.76M369.56 491.53l13.4-16.42-.24 21.19-13.16-4.77zM257.01 478.79c11.52 32.63 28.24 79.99 41.33 117.1M250.34 480.92l-.05-21.19 13.26 16.53-13.21 4.66zM254.94 712.06c-20.44 18.35-42.89 38.51-62.64 56.24" style="stroke:#ffaf37;stroke-width:2"/><path fill="#FFAF37" d="m188.39 771.81 9.371-3.03-5.648-.308.308-5.648-4.031 8.986z" style="stroke:#ffaf37;stroke-width:2"/><path fill="none" d="M382.41 712.06c20.55 18.35 43.13 38.51 62.99 56.24" style="stroke:#ffaf37;stroke-width:2"/><path fill="#FFAF37" d="m449.33 771.81-4.05-8.978.32 5.648-5.648.32 9.378 3.01z" style="stroke:#ffaf37;stroke-width:2"/></svg>
